X: 16660
T: Hanter Dro
R: waltz
M: 3/4
K: Bminor
"Bm(Em)"Bf cd B2|"F#m"Bf fe fe/d/|"G"cd/e/ d/B/c/d/ B2:|
|:"Em(G)"Bd cB f2|"F#m"e/d/c/d/ ed/c/ BA|"Em(G)"Bd cB f2|"A"e/d/c/d/ ed/c/ B2:|

